svg/nature/cactus_2_line.svg

<?xml version="1.0" encoding="UTF-8"?>
<svg width="24px" height="24px" viewBox="0 0 24 24" version="1.1" xmlns="http://www.w3.org/2000/svg" xmlns:xlink="http://www.w3.org/1999/xlink">
    <title>cactus_2_line</title>
    <g id="Icon" stroke="none" stroke-width="1" fill="none" fill-rule="evenodd">
        <g id="Nature" transform="translate(-192.000000, -2.000000)">
            <g id="cactus_2_line" transform="translate(192.000000, 2.000000)">
                <path d="M24,0 L24,24 L0,24 L0,0 L24,0 Z M12.5935,23.2578 L12.5819,23.2595 L12.5109,23.295 L12.4919,23.2987 L12.4767,23.295 L12.4057,23.2595 C12.3958,23.2564 12.387,23.259 12.3821,23.2649 L12.378,23.2758 L12.3609,23.7031 L12.3659,23.7235 L12.3769,23.7357 L12.4805,23.8097 L12.4953,23.8136 L12.5071,23.8097 L12.6107,23.7357 L12.6233,23.7197 L12.6267,23.7031 L12.6096,23.2758 C12.6076,23.2657 12.601,23.2593 12.5935,23.2578 Z M12.8584,23.1453 L12.8445,23.1473 L12.6598,23.2397 L12.6499,23.2499 L12.6472,23.2611 L12.6651,23.6906 L12.6699,23.7034 L12.6784,23.7105 L12.8793,23.8032 C12.8914,23.8069 12.9022,23.803 12.9078,23.7952 L12.9118,23.7812 L12.8777,23.1665 C12.8753,23.1546 12.8674,23.147 12.8584,23.1453 Z M12.143,23.1473 C12.1332,23.1424 12.1222,23.1453 12.1156,23.1526 L12.1099,23.1665 L12.0758,23.7812 C12.0751,23.7927 12.0828,23.8019 12.0926,23.8046 L12.1083,23.8032 L12.3092,23.7105 L12.3186,23.7024 L12.3225,23.6906 L12.3404,23.2611 L12.3372,23.2485 L12.3278,23.2397 L12.143,23.1473 Z" id="MingCute" fill-rule="nonzero"></path>
                <path d="M12,3 C12.5523,3 13,3.44772 13,4 L13,4.05493 C14.7358,4.24682 16.3229,4.93237 17.6177,5.96809 L17.6568,5.92893 C18.0474,5.5384 18.6805,5.5384 19.0711,5.92893 C19.4616,6.31945 19.4616,6.95262 19.0711,7.34314 L19.0319,7.38231 C20.0676,8.67707 20.7532,10.2641 20.9451,12 L21,12 C21.5523,12 22,12.4477 22,13 C22,13.5523 21.5523,14 21,14 L20.9451,14 C20.7531,15.7362 20.0672,17.3232 19.0317,18.6177 L19.0711,18.657 C19.4616,19.0475 19.4616,19.6807 19.0711,20.0712 C18.6805,20.4617 18.0474,20.4617 17.6568,20.0712 L17.6175,20.0319 C17.2243,20.3464 16.8042,20.6286 16.3612,20.8744 C16.2128,20.9568 16.0458,21.000075 15.876,21.000075 L8.12399,21.000075 C7.95422,21.000075 7.78724,20.9568 7.63879,20.8744 C7.1958,20.6286 6.77566,20.3464 6.38243,20.0318 L6.34314,20.0711 C5.95261,20.4616 5.31945,20.4616 4.92893,20.0711 C4.5384,19.6806 4.5384,19.0474 4.92893,18.6569 L4.96823,18.6176 C3.93281,17.3232 3.24691,15.7362 3.05494,14 L3,14 C2.44772,14 2,13.5523 2,13 C2,12.4477 2.44772,12 3,12 L3.05493,12 C3.24682,10.2642 3.93236,8.67712 4.96807,7.38236 L4.92893,7.34321 C4.5384,6.95269 4.5384,6.31953 4.92893,5.929 C5.31945,5.53848 5.95261,5.53848 6.34314,5.929 L6.38227,5.96813 C7.67705,4.93239 9.26413,4.24682 11,4.05493 L11,4 C11,3.44772 11.4477,3 12,3 Z M14.2161,6.35804 L14.3779,6.64611 L14.3779,6.64611 C14.8654,7.53982 15.3535,8.6792 15.665,10.0342 L15.9434,9.8734 C16.4217,9.59726 17.0333,9.76113 17.3094,10.2394 C17.5856,10.7177 17.4217,11.3293 16.9434,11.6054 L16.0774,12.1054 C16.0434,12.1251 16.0087,12.1425 15.9736,12.1577 C15.9909,12.4323 16,12.7131 16,13 C16,13.342 15.987,13.6754 15.9627,13.9998 L16.5,13.9998 C17.0523,13.9998 17.5,14.4476 17.5,14.9998 C17.5,15.5521 17.0523,15.9998 16.5,15.9998 L15.6572,15.9998 C15.3856,17.1669 14.9833,18.1732 14.564,19 L15.6079,19 C17.6425,17.7737 19,15.5447 19,13 C19,9.90852 16.9959,7.28511 14.2161,6.35804 Z M9.78392,6.35804 C7.00406,7.28511 5,9.90852 5,13 C5,15.4538179 6.26225792,17.614083 8.17673705,18.8648051 L8.39211,19 L9.43603,19 C9.06330111,18.2650667 8.70400432,17.3883062 8.43803691,16.3828521 L8.34283,15.9998 L7.5,15.9998 C6.94772,15.9998 6.5,15.5521 6.5,14.9998 C6.5,14.4870429 6.88604429,14.0643041 7.38337975,14.0065289 L7.5,13.9998 L8.03729,13.9998 C8.01298,13.6754 8,13.342 8,13 C8,12.7131 8.00914,12.4323 8.02644,12.1577 L7.97407875,12.13325 L7.97407875,12.13325 L7.92261,12.1055 L7.05658,11.6055 C6.57829,11.3293 6.41441,10.7178 6.69055,10.2395 C6.946975,9.79533643 7.49263143,9.62231439 7.9522198,9.82095624 L8.05658,9.87344 L8.33503,10.0342 C8.64652,8.67922 9.13462,7.53983 9.6221,6.64611 L9.78392,6.35804 L9.78392,6.35804 Z M12,6.59553 C11.8076,6.87195 11.5931,7.20933 11.3779,7.60382 C10.6881,8.86845 10,10.7045 10,13 C10,15.5721182 10.8647791,17.5685674 11.6244894,18.8254884 L11.7322,19 L12.2678,19 C13.0509,17.7574 14,15.6946 14,13 C14,10.7045 13.3119,8.86845 12.6221,7.60382 C12.4069,7.20933 12.1924,6.87195 12,6.59553 Z" id="形状" fill="#09244B"></path>
            </g>
        </g>
    </g>
</svg>

<svg xmlns="http://www.w3.org/2000/svg" width="24" height="24"><g fill="none" fill-rule="evenodd"><path d="M24 0v24H0V0h24ZM12.594 23.258l-.012.002-.071.035-.02.004-.014-.004-.071-.036c-.01-.003-.019 0-.024.006l-.004.01-.017.428.005.02.01.013.104.074.015.004.012-.004.104-.074.012-.016.004-.017-.017-.427c-.002-.01-.009-.017-.016-.018Zm.264-.113-.014.002-.184.093-.01.01-.003.011.018.43.005.012.008.008.201.092c.012.004.023 0 .029-.008l.004-.014-.034-.614c-.003-.012-.01-.02-.02-.022Zm-.715.002a.023.023 0 0 0-.027.006l-.006.014-.034.614c0 .012.007.02.017.024l.015-.002.201-.093.01-.008.003-.011.018-.43-.003-.012-.01-.01-.184-.092Z"/><path fill="#09244B" d="M12 3a1 1 0 0 1 1 1v.055a8.958 8.958 0 0 1 4.618 1.913l.039-.04a1 1 0 0 1 1.414 1.415l-.04.04A8.957 8.957 0 0 1 20.946 12H21a1 1 0 1 1 0 2h-.055a8.958 8.958 0 0 1-1.913 4.618l.04.039a1 1 0 0 1-1.415 1.414l-.04-.04a9.01 9.01 0 0 1-1.256.843 1 1 0 0 1-.485.126H8.124a1 1 0 0 1-.485-.126 9.005 9.005 0 0 1-1.257-.842l-.039.04a1 1 0 0 1-1.414-1.415l.04-.04A8.958 8.958 0 0 1 3.054 14H3a1 1 0 1 1 0-2h.055a8.957 8.957 0 0 1 1.913-4.618l-.04-.039A1 1 0 1 1 6.344 5.93l.04.04A8.957 8.957 0 0 1 11 4.054V4a1 1 0 0 1 1-1Zm2.216 3.358.162.288a13.32 13.32 0 0 1 1.287 3.388l.278-.16a1 1 0 1 1 1 1.731l-.866.5a.998.998 0 0 1-.103.053A13.394 13.394 0 0 1 15.963 14h.537a1 1 0 0 1 0 2h-.843a13.309 13.309 0 0 1-1.093 3h1.044a7.003 7.003 0 0 0-1.392-12.642Zm-4.432 0a7.003 7.003 0 0 0-1.607 12.507l.215.135h1.044a13.326 13.326 0 0 1-.998-2.617L8.343 16H7.5a1 1 0 0 1-.117-1.993L7.5 14h.537a13.376 13.376 0 0 1-.01-1.842l-.053-.025-.051-.027-.866-.5a1 1 0 0 1 .895-1.785l.105.052.278.161a13.32 13.32 0 0 1 1.287-3.388l.162-.288ZM12 6.596A11.235 11.235 0 0 0 10 13c0 2.572.865 4.569 1.624 5.825l.108.175h.536A11.254 11.254 0 0 0 12 6.596Z"/></g></svg>
